build/img/logo-white.svg

<svg width="152" height="28" viewBox="0 0 152 28" fill="none" xmlns="http://www.w3.org/2000/svg">
<g clip-path="url(#clip0)">
<rect width="28" height="28" fill="url(#paint0_linear)" fill-opacity="0.2"/>
<path d="M27.4717 0H23.1396C22.9811 0 22.8755 0.0528302 22.7698 0.158491L0.158491 22.7698C0.0528302 22.8755 0 22.9811 0 23.1396V27.4717C0 27.7358 0.211321 28 0.528302 28H4.86038C5.01887 28 5.12453 27.9472 5.23019 27.8415L27.8415 5.23019C27.9472 5.12453 28 5.01887 28 4.86038V0.528302C28 0.211321 27.7887 0 27.4717 0Z" fill="#5CC773"/>
<path d="M0.898113 11.2528L11.2528 0.898113C11.6226 0.528302 11.3585 0 10.9358 0H0.528302C0.211321 0 0 0.211321 0 0.528302V10.9358C0 11.3585 0.528302 11.6226 0.898113 11.2528Z" fill="white"/>
<path d="M27.1011 16.7474L16.7464 27.1021C16.3766 27.4719 16.6408 28.0002 17.0634 28.0002H27.4709C27.7351 28.0002 27.9992 27.7889 27.9992 27.4719V17.0644C27.9992 16.6417 27.4709 16.3776 27.1011 16.7474Z" fill="white"/>
</g>
<path d="M48 17.3671L55.1826 10.7831V10.5836H48.6484V7.59082H59.6219V10.7831L52.4392 17.3671V17.6165H59.8713V20.5594H48V17.3671Z" fill="#5CC773"/>
<path d="M61.8164 13.7256H68.0014V16.868H61.8164V13.7256Z" fill="white"/>
<path d="M70.7461 7.59082H80.7219V10.5337H74.1379V12.7284H80.4227V15.6713H74.1379V20.5594H70.7461V7.59082Z" fill="white"/>
<path d="M86.457 7.59082H90.4972L95.7844 19.8112V20.5594H92.2928L91.4449 18.4645H85.5093L84.6613 20.5594H81.2695V19.8112L86.457 7.59082ZM86.7064 15.5216H90.1979L88.6018 11.5313H88.3025L86.7064 15.5216Z" fill="white"/>
<path d="M108.753 10.7329V11.5809H105.261C104.912 10.7828 103.815 10.284 102.767 10.284C101.57 10.284 100.722 10.683 100.722 11.3315C100.722 12.0298 101.919 12.329 103.067 12.5784C105.411 13.0772 108.853 13.7755 108.853 16.6187C108.853 19.2622 106.359 20.8584 103.166 20.8584C100.373 20.8584 98.0288 19.5615 97.0312 17.2671V16.4191H100.523C100.922 17.2172 101.969 17.716 103.216 17.716C104.413 17.716 105.411 17.4167 105.411 16.6685C105.411 16.0201 104.314 15.7208 103.017 15.4714C100.722 15.0225 97.2806 14.3242 97.2806 11.3813C97.2806 8.88737 99.7746 7.1416 102.767 7.1416C105.66 7.19148 107.805 8.68786 108.753 10.7329Z" fill="white"/>
<path d="M115.239 7.59082H119.279L124.567 19.8112V20.5594H121.075L120.227 18.4645H114.341L113.493 20.5594H110.102V19.8112L115.239 7.59082ZM115.489 15.5216H118.98L117.384 11.5313H117.085L115.489 15.5216Z" fill="white"/>
<path d="M126.46 7.59082H132.296C136.336 7.59082 139.429 9.98502 139.429 14.0751C139.429 18.1652 136.336 20.5594 132.296 20.5594H126.41V7.59082H126.46ZM129.852 10.5836V17.6664H132.346C134.441 17.6664 136.037 16.3696 136.037 14.125C136.037 11.8306 134.491 10.6335 132.346 10.6335H129.852V10.5836Z" fill="white"/>
<defs>
<linearGradient id="paint0_linear" x1="12.9424" y1="28" x2="14.9802" y2="0.983932" gradientUnits="userSpaceOnUse">
<stop stop-color="#5CC773"/>
<stop offset="1" stop-color="#5CC773" stop-opacity="0.18"/>
</linearGradient>
<clipPath id="clip0">
<rect width="28" height="28" fill="white"/>
</clipPath>
</defs>
</svg>

<svg width="152" height="28" fill="none" xmlns="http://www.w3.org/2000/svg">
    <g clip-path="url(#a)">
        <path fill="url(#b)" fill-opacity=".2" d="M0 0h28v28H0z"/>
        <path d="M27.472 0H23.14a.48.48 0 0 0-.37.158L.158 22.77a.48.48 0 0 0-.158.37v4.332A.53.53 0 0 0 .528 28H4.86a.48.48 0 0 0 .37-.159l22.611-22.61A.48.48 0 0 0 28 4.86V.527C28 .211 27.789 0 27.472 0z" fill="#5CC773"/>
        <path d="M.898 11.253 11.253.898c.37-.37.105-.898-.317-.898H.528C.211 0 0 .211 0 .528v10.408c0 .422.528.687.898.317zM27.101 16.747 16.746 27.102c-.37.37-.105.898.317.898h10.408a.53.53 0 0 0 .528-.528V17.064c0-.422-.528-.686-.898-.317z" fill="#fff"/>
    </g>
    <path d="m48 17.367 7.183-6.584v-.2h-6.535V7.592h10.974v3.192l-7.183 6.584v.25h7.432v2.942H48v-3.192z" fill="#5CC773"/>
    <path d="M61.816 13.726h6.185v3.142h-6.185v-3.142zM70.746 7.59h9.976v2.944h-6.584v2.194h6.285v2.943h-6.285v4.888h-3.392V7.591zM86.457 7.59h4.04l5.287 12.221v.748h-3.491l-.848-2.095h-5.936l-.848 2.095H81.27v-.748l5.188-12.22zm.25 7.932h3.49l-1.595-3.99h-.3l-1.596 3.99zM108.753 10.733v.848h-3.492c-.349-.798-1.446-1.297-2.494-1.297-1.197 0-2.045.399-2.045 1.047 0 .699 1.197.998 2.345 1.247 2.344.5 5.786 1.197 5.786 4.04 0 2.644-2.494 4.24-5.687 4.24-2.793 0-5.137-1.297-6.135-3.59v-.849h3.492c.399.798 1.446 1.297 2.693 1.297 1.197 0 2.195-.3 2.195-1.047 0-.649-1.097-.948-2.394-1.198-2.295-.448-5.736-1.147-5.736-4.09 0-2.494 2.494-4.24 5.486-4.24 2.893.05 5.038 1.547 5.986 3.592zM115.239 7.59h4.04l5.288 12.221v.748h-3.492l-.848-2.095h-5.886l-.848 2.095h-3.391v-.748l5.137-12.22zm.25 7.932h3.491l-1.596-3.99h-.299l-1.596 3.99zM126.46 7.59h5.836c4.04 0 7.133 2.395 7.133 6.485s-3.093 6.484-7.133 6.484h-5.886V7.591h.05zm3.392 2.994v7.082h2.494c2.095 0 3.691-1.296 3.691-3.541 0-2.294-1.546-3.492-3.691-3.492h-2.494v-.05z" fill="#fff"/>
    <defs>
        <linearGradient id="b" x1="12.942" y1="28" x2="14.98" y2=".984" gradientUnits="userSpaceOnUse">
            <stop stop-color="#5CC773"/>
            <stop offset="1" stop-color="#5CC773" stop-opacity=".18"/>
        </linearGradient>
        <clipPath id="a">
            <path fill="#fff" d="M0 0h28v28H0z"/>
        </clipPath>
    </defs>
</svg>
